icons/apps/48/bitcoin128.svg

<?xml version="1.0" encoding="UTF-8" standalone="no"?>
<svg
   xmlns:dc="http://purl.org/dc/elements/1.1/"
   xmlns:cc="http://creativecommons.org/ns#"
   xmlns:rdf="http://www.w3.org/1999/02/22-rdf-syntax-ns#"
   xmlns:svg="http://www.w3.org/2000/svg"
   xmlns="http://www.w3.org/2000/svg"
   xmlns:xlink="http://www.w3.org/1999/xlink"
   xmlns:sodipodi="http://sodipodi.sourceforge.net/DTD/sodipodi-0.dtd"
   xmlns:inkscape="http://www.inkscape.org/namespaces/inkscape"
   width="48"
   version="1.1"
   height="48"
   viewBox="0 0 48 48"
   id="svg2"
   inkscape:version="0.91 r13725"
   sodipodi:docname="bitcoin128.svg">
  <metadata
     id="metadata20">
    <rdf:RDF>
      <cc:Work
         rdf:about="">
        <dc:format>image/svg+xml</dc:format>
        <dc:type
           rdf:resource="http://purl.org/dc/dcmitype/StillImage" />
        <dc:title />
      </cc:Work>
    </rdf:RDF>
  </metadata>
  <defs
     id="defs18">
    <linearGradient
       inkscape:collect="always"
       id="linearGradient4219">
      <stop
         style="stop-color:#000000;stop-opacity:1;"
         offset="0"
         id="stop4221" />
      <stop
         style="stop-color:#000000;stop-opacity:0;"
         offset="1"
         id="stop4223" />
    </linearGradient>
    <linearGradient
       inkscape:collect="always"
       id="linearGradient4153">
      <stop
         style="stop-color:#f48b0b;stop-opacity:1"
         offset="0"
         id="stop4155" />
      <stop
         style="stop-color:#ffba6b;stop-opacity:1"
         offset="1"
         id="stop4157" />
    </linearGradient>
    <linearGradient
       inkscape:collect="always"
       xlink:href="#linearGradient4153"
       id="linearGradient4159"
       x1="23"
       y1="43.865852"
       x2="23"
       y2="5.0000248"
       gradientUnits="userSpaceOnUse"
       gradientTransform="translate(-1.7558594e-8,-2.481687e-5)" />
    <linearGradient
       inkscape:collect="always"
       xlink:href="#linearGradient4219"
       id="linearGradient4225"
       x1="15.233375"
       y1="11.995026"
       x2="39.608559"
       y2="36.370209"
       gradientUnits="userSpaceOnUse" />
  </defs>
  <sodipodi:namedview
     pagecolor="#ffffff"
     bordercolor="#666666"
     borderopacity="1"
     objecttolerance="10"
     gridtolerance="10"
     guidetolerance="10"
     inkscape:pageopacity="0"
     inkscape:pageshadow="2"
     inkscape:window-width="1535"
     inkscape:window-height="876"
     id="namedview16"
     showgrid="false"
     inkscape:zoom="1"
     inkscape:cx="19.475698"
     inkscape:cy="21.349186"
     inkscape:window-x="65"
     inkscape:window-y="24"
     inkscape:window-maximized="1"
     inkscape:current-layer="svg2">
    <inkscape:grid
       type="xygrid"
       id="grid4161" />
  </sodipodi:namedview>
  <circle
     style="fill:url(#linearGradient4159);fill-opacity:1"
     id="circle6"
     r="20"
     cx="24"
     cy="24" />
  <path
     style="opacity:0.2;fill:url(#linearGradient4225);fill-opacity:1;stroke:none;stroke-width:2;stroke-linecap:butt;stroke-linejoin:round;stroke-miterlimit:4;stroke-dasharray:none;stroke-opacity:1"
     d="M 25.984375 11.986328 L 24.748047 13.222656 L 24.839844 14.839844 L 22.005859 12.005859 L 20.896484 13.712891 L 20.197266 18.804688 L 16.6875 16.322266 L 15 18.009766 L 19.664062 22.673828 L 18.613281 30.328125 L 15.017578 31.988281 L 26.888672 43.859375 A 20 20 0 0 0 43.330078 29.332031 L 25.984375 11.986328 z "
     id="rect4204" />
  <path
     style="fill:#ffffff;fill-opacity:1"
     d="m 20,12 0,4 c -0.491694,0.02 -1.394226,0 -1.865234,0 L 15,16 l 0,2 c 0,0 1.718836,-0.02999 1.691406,0 C 17.611664,17.986 17.90472,18.654087 18,19.099609 L 18,29 c -0.03527,0.281551 -0.0053,0.98 -0.648438,1 C 17.381261,30.026 15,30 15,30 l 0,2 3.253906,0 C 18.80411,31.98 19.468482,32 20,32 l 0,4 2,-0.03711 L 22,32 l 1.96875,0 0.0625,4 2,0 -0.0625,-4 C 32,32 32,29 32,27.498047 32,26 31.365771,24.001911 29,24 c 1.365771,0.0019 2,-2.256505 2,-4 0,-2.256605 -2,-4 -5,-4 l 0,-4 -2,0 0,4 c -0.597247,0 -1.393658,-0.022 -2,0 l 0,-4 z m 2,6 c 2,0 5.000347,3.8e-5 5,2.5 3.47e-4,2.500163 -3,2.5 -5,2.5 z m 0,7 c 4,1.25e-4 6.000416,3.8e-5 6,2.5 4.16e-4,2.500163 -2,2.5 -6,2.5 z"
     id="path4157"
     inkscape:connector-curvature="0"
     sodipodi:nodetypes="ccscccccccccccccccccccsccccccccccccccc" />
  <path
     style="fill:#000000;fill-opacity:1;opacity:0.2"
     d="M 43.978516 23.417969 A 20 20 0 0 1 24 43 A 20 20 0 0 1 4.0214844 23.582031 A 20 20 0 0 0 4 24 A 20 20 0 0 0 24 44 A 20 20 0 0 0 44 24 A 20 20 0 0 0 43.978516 23.417969 z "
     id="circle4258" />
</svg>

<?xml version="1.0" encoding="UTF-8" standalone="no"?>
<svg
   xmlns:dc="http://purl.org/dc/elements/1.1/"
   xmlns:cc="http://creativecommons.org/ns#"
   xmlns:rdf="http://www.w3.org/1999/02/22-rdf-syntax-ns#"
   xmlns:svg="http://www.w3.org/2000/svg"
   xmlns="http://www.w3.org/2000/svg"
   xmlns:xlink="http://www.w3.org/1999/xlink"
   xmlns:sodipodi="http://sodipodi.sourceforge.net/DTD/sodipodi-0.dtd"
   xmlns:inkscape="http://www.inkscape.org/namespaces/inkscape"
   width="48"
   version="1.1"
   height="48"
   viewBox="0 0 48 48"
   id="svg2"
   inkscape:version="0.91 r13725"
   sodipodi:docname="bitcoin2.svg">
  <metadata
     id="metadata20">
    <rdf:RDF>
      <cc:Work
         rdf:about="">
        <dc:format>image/svg+xml</dc:format>
        <dc:type
           rdf:resource="http://purl.org/dc/dcmitype/StillImage" />
        <dc:title />
      </cc:Work>
    </rdf:RDF>
  </metadata>
  <defs
     id="defs18">
    <linearGradient
       inkscape:collect="always"
       id="linearGradient4219">
      <stop
         style="stop-color:#000000;stop-opacity:1;"
         offset="0"
         id="stop4221" />
      <stop
         style="stop-color:#000000;stop-opacity:0;"
         offset="1"
         id="stop4223" />
    </linearGradient>
    <linearGradient
       inkscape:collect="always"
       id="linearGradient4153">
      <stop
         style="stop-color:#f48b0b;stop-opacity:1"
         offset="0"
         id="stop4155" />
      <stop
         style="stop-color:#ffba6b;stop-opacity:1"
         offset="1"
         id="stop4157" />
    </linearGradient>
    <linearGradient
       inkscape:collect="always"
       xlink:href="#linearGradient4153"
       id="linearGradient4159"
       x1="23"
       y1="43.865852"
       x2="23"
       y2="5.0000248"
       gradientUnits="userSpaceOnUse"
       gradientTransform="translate(-1.7558594e-8,-2.481687e-5)" />
    <linearGradient
       inkscape:collect="always"
       xlink:href="#linearGradient4219"
       id="linearGradient4225"
       x1="15.233375"
       y1="11.995026"
       x2="39.608559"
       y2="36.370209"
       gradientUnits="userSpaceOnUse" />
  </defs>
  <sodipodi:namedview
     pagecolor="#ffffff"
     bordercolor="#666666"
     borderopacity="1"
     objecttolerance="10"
     gridtolerance="10"
     guidetolerance="10"
     inkscape:pageopacity="0"
     inkscape:pageshadow="2"
     inkscape:window-width="1535"
     inkscape:window-height="876"
     id="namedview16"
     showgrid="true"
     inkscape:zoom="13.12"
     inkscape:cx="-0.55934241"
     inkscape:cy="21.349186"
     inkscape:window-x="65"
     inkscape:window-y="24"
     inkscape:window-maximized="1"
     inkscape:current-layer="svg2">
    <inkscape:grid
       type="xygrid"
       id="grid4161" />
  </sodipodi:namedview>
  <circle
     style="fill:url(#linearGradient4159);fill-opacity:1"
     id="circle6"
     r="20"
     cx="24"
     cy="24" />
  <path
     style="opacity:0.2;fill:url(#linearGradient4225);fill-opacity:1;stroke:none;stroke-width:2;stroke-linecap:butt;stroke-linejoin:round;stroke-miterlimit:4;stroke-dasharray:none;stroke-opacity:1"
     d="M 25.984375 11.986328 L 24.748047 13.222656 L 24.839844 14.839844 L 22.005859 12.005859 L 20.896484 13.712891 L 20.197266 18.804688 L 16.6875 16.322266 L 15 18.009766 L 19.664062 22.673828 L 18.613281 30.328125 L 15.017578 31.988281 L 26.888672 43.859375 A 20 20 0 0 0 43.330078 29.332031 L 25.984375 11.986328 z "
     id="rect4204" />
  <path
     style="fill:#ffffff;fill-opacity:1"
     d="M 20 12 L 20 16 C 19.508306 16.02 18.605774 16 18.134766 16 L 15 16 L 15 18 C 15 18 16.718836 17.97001 16.691406 18 C 17.611664 17.986002 17.90472 18.654087 18 19.099609 L 18 29 C 17.964733 29.281551 17.994656 29.98 17.351562 30 C 17.381261 30.026 15 30 15 30 L 15 32 L 18.253906 32 C 18.80411 31.98 19.468482 32 20 32 L 20 36 L 22 35.962891 L 22 32 L 23.96875 32 L 24.03125 36 L 26.03125 36 L 25.96875 32 C 29.784374 31.723048 32.709147 30.981437 32.978516 27.498047 C 33.196097 24.693138 32.000537 22.999958 29.634766 22.998047 C 31.000537 22.999958 32 21.243495 32 19.5 C 32 17.243395 29.999999 16.000086 26 16 L 26 12 L 24 12 L 24 16 C 23.402753 16 22.453998 15.978 21.847656 16 L 22 12 L 20 12 z M 22 18 C 24 18 27.000347 18.000038 27 20.5 C 27.000347 23.000163 24 23 22 23 L 22 18 z M 22 25 C 26 25.000125 28.000416 25.000038 28 27.5 C 28.000416 30.000163 26 30 22 30 L 22 25 z "
     id="path4157" />
  <path
     style="fill:#000000;fill-opacity:1;opacity:0.2"
     d="M 43.978516 23.417969 A 20 20 0 0 1 24 43 A 20 20 0 0 1 4.0214844 23.582031 A 20 20 0 0 0 4 24 A 20 20 0 0 0 24 44 A 20 20 0 0 0 44 24 A 20 20 0 0 0 43.978516 23.417969 z "
     id="circle4258" />
</svg>
